svg/alarm.svg

<?xml version="1.0" encoding="UTF-8"?>
<svg xmlns="http://www.w3.org/2000/svg" xmlns:xlink="http://www.w3.org/1999/xlink" width="32" height="32" viewBox="0 0 32 32">
<path fill-rule="nonzero" fill="rgb(0%, 0%, 0%)" fill-opacity="1" d="M 16 3.839844 C 14.941406 3.84375 14.082031 4.703125 14.078125 5.761719 L 14.078125 6.632812 C 10.988281 7.394531 8.960938 9.992188 8.960938 13.480469 L 8.960938 18.472656 C 8.960938 19.863281 8.140625 21.4375 7.667969 22.226562 L 6.507812 23.964844 C 6.375 24.160156 6.363281 24.414062 6.476562 24.621094 C 6.585938 24.832031 6.804688 24.960938 7.039062 24.960938 L 24.960938 24.960938 C 25.199219 24.960938 25.414062 24.832031 25.523438 24.621094 C 25.636719 24.414062 25.625 24.160156 25.492188 23.964844 L 24.351562 22.25 C 23.46875 20.785156 23.039062 19.574219 23.039062 18.558594 L 23.039062 13.566406 C 23.039062 10.039062 21.011719 7.40625 17.921875 6.636719 L 17.921875 5.761719 C 17.917969 4.703125 17.058594 3.84375 16 3.839844 M 16 5.121094 C 16.351562 5.121094 16.640625 5.40625 16.640625 5.761719 L 16.640625 6.429688 C 16.425781 6.410156 16.214844 6.402344 16 6.398438 C 15.78125 6.398438 15.570312 6.414062 15.359375 6.429688 L 15.359375 5.761719 C 15.359375 5.410156 15.648438 5.121094 16 5.121094 M 2.226562 6.066406 C 0.800781 8.386719 0 11.148438 0 14.078125 C 0 17.011719 0.800781 19.773438 2.226562 22.09375 L 3.320312 21.425781 C 2.015625 19.308594 1.28125 16.78125 1.28125 14.078125 C 1.28125 11.378906 2.015625 8.851562 3.320312 6.734375 Z M 29.773438 6.066406 L 28.679688 6.734375 C 29.984375 8.851562 30.71875 11.378906 30.71875 14.078125 C 30.71875 16.78125 29.984375 19.308594 28.679688 21.425781 L 29.773438 22.09375 C 31.199219 19.773438 32 17.011719 32 14.078125 C 32 11.148438 31.199219 8.386719 29.773438 6.066406 M 5.003906 7.769531 C 3.816406 9.660156 3.191406 11.847656 3.199219 14.078125 C 3.199219 16.429688 3.921875 18.589844 4.996094 20.382812 L 6.09375 19.722656 C 5.125 18.101562 4.480469 16.167969 4.480469 14.078125 C 4.480469 11.972656 5.039062 10.144531 6.089844 8.441406 Z M 26.996094 7.769531 L 25.910156 8.441406 C 26.964844 10.144531 27.519531 11.976562 27.519531 14.078125 C 27.519531 16.167969 26.875 18.101562 25.902344 19.722656 L 27.003906 20.382812 C 28.078125 18.589844 28.800781 16.429688 28.800781 14.078125 C 28.800781 11.746094 28.164062 9.652344 26.996094 7.769531 M 13.070312 26.238281 C 13.578125 27.402344 14.726562 28.160156 16 28.160156 C 17.273438 28.160156 18.421875 27.402344 18.929688 26.238281 Z M 13.070312 26.238281 "/>
</svg>

<svg role="img" viewBox="0 0 32 32" xmlns="http://www.w3.org/2000/svg"><path d="M16 3.84a1.93 1.93 0 0 0-1.922 1.922v.87c-3.09.763-5.117 3.36-5.117 6.848v4.993c0 1.39-.82 2.965-1.293 3.754l-1.16 1.738a.63.63 0 0 0-.031.656c.109.211.328.34.562.34h17.922a.63.63 0 0 0 .562-.34.63.63 0 0 0-.03-.656l-1.141-1.715c-.883-1.465-1.313-2.676-1.313-3.691v-4.993c0-3.527-2.027-6.16-5.117-6.93v-.874A1.93 1.93 0 0 0 16 3.84m0 1.281a.64.64 0 0 1 .64.64v.669a9 9 0 0 0-.64-.032c-.219 0-.43.016-.64.032v-.668a.64.64 0 0 1 .64-.64m-13.773.944C.8 8.386 0 11.148 0 14.078c0 2.934.8 5.695 2.227 8.016l1.093-.668c-1.304-2.117-2.039-4.645-2.039-7.348 0-2.7.735-5.226 2.04-7.344Zm27.546 0-1.093.668c1.304 2.118 2.039 4.645 2.039 7.344 0 2.703-.735 5.23-2.04 7.348l1.094.668C31.2 19.774 32 17.012 32 14.078c0-2.93-.8-5.691-2.227-8.012M5.003 7.77A11.8 11.8 0 0 0 3.2 14.078c0 2.352.723 4.512 1.797 6.305l1.098-.66c-.969-1.621-1.614-3.555-1.614-5.645 0-2.105.56-3.933 1.61-5.637Zm21.993 0-1.086.671c1.055 1.704 1.61 3.536 1.61 5.637 0 2.09-.645 4.024-1.618 5.645l1.102.66c1.074-1.793 1.797-3.953 1.797-6.305 0-2.332-.637-4.426-1.805-6.308M13.07 26.238A3.2 3.2 0 0 0 16 28.16a3.2 3.2 0 0 0 2.93-1.922Zm0 0"/></svg>
